Paco-Server/ear/default/img/ic_highlight_remove_24px.svg

<svg xmlns="http://www.w3.org/2000/svg" width="24" height="24" viewBox="0 0 24 24">
    <path d="M0 0h24v24h-24z" fill="none"/>
    <path d="M14.59 8l-2.59 2.59-2.59-2.59-1.41 1.41 2.59 2.59-2.59 2.59 1.41 1.41 2.59-2.59 2.59 2.59 1.41-1.41-2.59-2.59 2.59-2.59-1.41-1.41zm-2.59-6c-5.53 0-10 4.47-10 10s4.47 10 10 10 10-4.47 10-10-4.47-10-10-10zm0 18c-4.41 0-8-3.59-8-8s3.59-8 8-8 8 3.59 8 8-3.59 8-8 8z"/>
</svg>

<svg xmlns="http://www.w3.org/2000/svg" width="24" height="24" viewBox="0 0 24 24"><path d="M0 0h24v24H0z" fill="none"/><path d="M14.59 8L12 10.59 9.41 8 8 9.41 10.59 12 8 14.59 9.41 16 12 13.41 14.59 16 16 14.59 13.41 12 16 9.41 14.59 8zM12 2C6.47 2 2 6.47 2 12s4.47 10 10 10 10-4.47 10-10S17.53 2 12 2zm0 18c-4.41 0-8-3.59-8-8s3.59-8 8-8 8 3.59 8 8-3.59 8-8 8z"/></svg>
